X: 360
T: Apple Blossom
B: jims roots
M:C|
L:1/8
Q: 1/4=100
K:D
V:1 
%N:ADae tuning (fiddle)
%F:http://www.slippery-hill.com/recording/apple-blossom-6
"D"DEFE D2FF|ABdd ABd2|DEFE D2 DF| EDB,D A,B,D2|
DDFE DDFA|BddA Bdd>+slide+d-|dedB ABAG|"(A)"FDED "D"B,DD2:||
|:J"D"a3a a2aa|fded Bd d2|"G"b3b b2a2|fded Bd3|
"D"faaa a2 ba|f2 ed BdB2|f2ed BdAG|"A"FDED "D"B,D D2:|]
% abcbook-tune_id 6298c2459c42f1fb8af43d49


% abcbook-boost 0
% abcbook-tablature 
% abcbook-transpose 
% abcbook-lastupdated 1654178373195
% abcbook-soundfonts 
% abcbook-repeats 1


